X: 36312
T: Seamus O'Shanahan's
R: jig
M: 6/8
K: Aminor
E3 AGA|BAG GBd|edc Bcd|edc BcA|
EAA EAA|BAG GBd|edc Bcd|1 eBG ABA:|2 eBG ABc||
d2f fed|ecA ABc|BAB dcB|cde ecA|
d2f fed|ecA ABc|BAB dcB|1 A3 ABc:|2 AcA FAF||

